X: 37
T: Missa Ecce ancilla domini / Agnus Dei
N: Derived from Ock1006e-Missa_Ecce_ancilla_domini-Agnus.krn
C: Johannes Ockeghem
%%abc-version 2.0
%%abcx-abcm2ps-target-version 5.9.1 (29 Sep 2008)
%%abc-creator hum2abc beta
%%abcx-conversion-date 2019/02/17 07:26:14
%%abc-edited-by Jesse Rodin
%%abc-edited-by Will Watson 12/09/2012
%%abcx-initial-encoding-date 2015/12/06/
%%humdrum-veritas 3287058448
%%humdrum-veritas-data 2827444664
%%linebreak <none>
%%barnumbers 0
L: 1/4
M: 3/1
Q: 1/2=120
%%staves [1 2 3 4]
V: 1 clef=treble
V: 2 clef=treble-8
V: 3 clef=treble-8
V: 4 clef=bass
K: C
[V:1] G12 | 
[V:2] G6A2B4 | 
[V:3] z12 | 
[V:4] z12 | 
[V:1] G6A4GF | 
[V:2] c12 | 
[V:3] z12 | 
[V:4] z12 | 
[V:1] E4z4B2AB | 
[V:2] c4d2e3dcB | 
[V:3] z12 | 
[V:4] z12 | 
[V:1] c4B2G2A4 | 
[V:2] A4G2c4d2 | 
[V:3] z12 | 
[V:4] z12 | 
[V:1] G4A2G3FE2 | 
[V:2] e2c4B2c2d2 | 
[V:3] z12 | 
[V:4] z12 | 
[V:1] D6G3FA2- | 
[V:2] B4G4c4 | 
[V:3] z12 | 
[V:4] z12 | 
[V:1] A2G4^F2G4 | 
[V:2] d2B2A4G2c2- | 
[V:3] z12 | 
[V:4] z12 | 
[V:1] A2B4G4c2- | 
[V:2] c2d2B4e4 | 
[V:3] z12 | 
[V:4] z12 | 
[V:1] c2B2A2G2E4 | 
[V:2] c2d2c2e4A2- | 
[V:3] z12 | 
[V:4] z12 | 
[V:1] F2E3AA4^G2 | 
[V:2] A2G2A2c2B4 | 
[V:3] z12 | 
[V:4] z12 | 
[V:1] A4z4A4 | 
[V:2] A8z4 | 
[V:3] d12- | 
[V:4] D,12 | 
[V:1] G6F6 | 
[V:2] B6c2d4 | 
[V:3] d12 | 
[V:4] G,6A,2B,4 | 
[V:1] E4F6E2 | 
[V:2] A4z4c4 | 
[V:3] c12 | 
[V:4] C4A,8 | 
[V:1] G8F3G | 
[V:2] d8B4 | 
[V:3] B8d4- | 
[V:4] G,6F,2D,3E, | 
[V:1] A4G2A4B2 | 
[V:2] A4z4F4 | 
[V:3] d4d8 | 
[V:4] F,4G,2F,2D,4 | 
[V:1] c4G2A4G2 | 
[V:2] G4c4A4 | 
[V:3] e12- | 
[V:4] C,8C4 | 
[V:1] E4z4c4 | 
[V:2] z2A2B2A2c2B2 | 
[V:3] e12 | 
[V:4] C4G,2A,4G,2 | 
[V:1] B4G6A2 | 
[V:2] G4B2c2A4 | 
[V:3] e8d4- | 
[V:4] E,8F,4 | 
[V:1] _B4A6F2 | 
[V:2] G4z2F4G2 | 
[V:3] d4c8 | 
[V:4] G,4A,8 | 
[V:1] F8G4 | 
[V:2] A8B4 | 
[V:3] d8d4- | 
[V:4] D,8G,4 | 
[V:1] A4G2G4E2 | 
[V:2] A2d4^c2^c2B2 | 
[V:3] d4G8 | 
[V:4] F,4E,8 | 
[V:1] F3GA2GA_B2A2- | 
[V:2] d12 | 
[V:3] z4F8 | 
[V:4] D,12 | 
[V:1] A2G2F2D2F4 | 
[V:2] c4d8 | 
[V:3] A12 | 
[V:4] z4D,8 | 
[V:1] E4z4A4 | 
[V:2] G8A4 | 
[V:3] c8c4- | 
[V:4] C,8F,4 | 
[V:1] A4_B2G4FG | 
[V:2] F4G4d4 | 
[V:3] c4B8 | 
[V:4] A,4G,8 | 
[V:1] A8F4- | 
[V:2] z4d8 | 
[V:3] A12- | 
[V:4] D,12- | 
[V:1] F4A6G2 | 
[V:2] z2d4c2d2c2 | 
[V:3] A12 | 
[V:4] D,4F,6E,2 | 
[V:1] G4E4G3F | 
[V:2] e4z2e4dc | 
[V:3] c12 | 
[V:4] C,6E,4F,2 | 
[V:1] D4E8 | 
[V:2] B4c8 | 
[V:3] G12 | 
[V:4] G,4C,8 | 
[V:1] D12 ||  
[V:2] B12 ||  
[V:3] G12 ||  
[V:4] G,12 ||  
[V:1]  [K:C] [K:clef=treble][M:3/1]G6A2B2AB | 
[V:2]  [K:C] [K:clef=treble-8][M:3/1]G12 | 
[V:3]  [K:C] [K:clef=treble-8][M:3/1]z12 | 
[V:4]  [K:C] [K:clef=bass][M:3/1]z12 | 
[V:1] c3AB2d4c2 | 
[V:2] A4G6c2- | 
[V:3] z12 | 
[V:4] z12 | 
[V:1] A4G2c2d2e2- | 
[V:2] c2d2e4d2c2 | 
[V:3] z12 | 
[V:4] z12 | 
[V:1] e2dcB4c2B2 | 
[V:2] e2f2g4a2g2- | 
[V:3] z12 | 
[V:4] z12 | 
[V:1] A4G8 | 
[V:2] g2f2e2dcB2e2- | 
[V:3] z12 | 
[V:4] z12 | 
[V:1] E2F4E2D4 | 
[V:2] e2d4c4B2 | 
[V:3] z12 | 
[V:4] z12 | 
[V:1] C4z4F3G | 
[V:2] c8z4 | 
[V:3] z12 | 
[V:4] z12 | 
[V:1] A3GF2E2D4 | 
[V:2] z4z4f3g | 
[V:3] z12 | 
[V:4] z12 | 
[V:1] C4z2c3BB2 | 
[V:2] a3gf2e2d4 | 
[V:3] z12 | 
[V:4] z12 | 
[V:1] A2G2d4c2B2- | 
[V:2] z2c3BB2A2G2 | 
[V:3] z12 | 
[V:4] z12 | 
[V:1] B2e4d2c2B2- | 
[V:2] d3cc2B2e4 | 
[V:3] z12 | 
[V:4] z12 | 
[V:1] B2A4G3^FF2 | 
[V:2] d2c2B4A4 | 
[V:3] z12 | 
[V:4] z12 | 
[V:1] G4z4E4 | 
[V:2] G8z2c2- | 
[V:3] z12 | 
[V:4] z12 | 
[V:1] F4E2G4F2 | 
[V:2] c2d2e4c2d2 | 
[V:3] z12 | 
[V:4] z12 | 
[V:1] E4F4E2C2 | 
[V:2] c2e4d2e4 | 
[V:3] z12 | 
[V:4] z12 | 
[V:1] D2C2E4G4 | 
[V:2] f2e4c2B2c2 | 
[V:3] z12 | 
[V:4] z12 | 
[V:1] C2D2E2F2G2C2 | 
[V:2] z2F2G2A2B2c2 | 
[V:3] z12 | 
[V:4] z12 | 
[V:1] G2A2B2c4B2 | 
[V:2] G2c3de2d4 | 
[V:3] z12 | 
[V:4] z12 | 
[V:1] c4z4c4 | 
[V:2] c4d2c2A4 | 
[V:3] z12 | 
[V:4] z12 | 
[V:1] B4c2d4B2 | 
[V:2] G2E4F2G4 | 
[V:3] z12 | 
[V:4] z12 | 
[V:1] A2G2c4B2A2- | 
[V:2] c3de4d4 | 
[V:3] z12 | 
[V:4] z12 | 
[V:1] AGA3GF2E4 | 
[V:2] c3Ad2d4^c2 | 
[V:3] z12 | 
[V:4] z12 | 
[V:1] D4z2F4G2 | 
[V:2] d8z4 | 
[V:3] z12 | 
[V:4] z12 | 
[V:1] A4G2E2F2G2- | 
[V:2] F4G4A2G2 | 
[V:3] z12 | 
[V:4] z12 | 
[V:1] GFEDE2C4c2 | 
[V:2] B4c3de4 | 
[V:3] z12 | 
[V:4] z12 | 
[V:1] B2A4G2d4 | 
[V:2] d4c4B2e2- | 
[V:3] z12 | 
[V:4] z12 | 
[V:1] c2B2A4F2G2 | 
[V:2] e2d4c2d3c | 
[V:3] z12 | 
[V:4] z12 | 
[V:1] A2D2E2D4A2- | 
[V:2] A2B2G4d4 | 
[V:3] z12 | 
[V:4] z12 | 
[V:1] AGG4^F2G4 ||  
[V:2] B2G2A4G4 ||  
[V:3] z12 ||  
[V:4] z12 ||  
[V:1]  [K:C] [K:clef=treble][M:2/1]G8 | 
[V:2]  [K:C] [K:clef=treble-8][M:2/1]d8 | 
[V:3]  [K:C] [K:clef=treble-8][M:2/1]G8- | 
[V:4]  [K:C] [K:clef=bass][M:2/1]G,8 | 
[V:1] B4c4 | 
[V:2] e8 | 
[V:3] G8- | 
[V:4] E,4C,4 | 
[V:1] d4B4 | 
[V:2] d8 | 
[V:3] G8 | 
[V:4] z4G,4 | 
[V:1] c8 | 
[V:2] z4f4 | 
[V:3] A8 | 
[V:4] F,2F,4E,F, | 
[V:1] B6G2 | 
[V:2] d2e4dc | 
[V:3] G8- | 
[V:4] G,4E,4- | 
[V:1] G2E2D4 | 
[V:2] B2c2d4- | 
[V:3] G8 | 
[V:4] E,2C,2B,,4- | 
[V:1] G8 | 
[V:2] d4e4 | 
[V:3] D4G4- | 
[V:4] B,,4C,4 | 
[V:1] E4C4 | 
[V:2] c8 | 
[V:3] G4A4 | 
[V:4] E,4F,4 | 
[V:1] D8 | 
[V:2] z4F4 | 
[V:3] B8 | 
[V:4] D,8 | 
[V:1] E8 | 
[V:2] G4c4- | 
[V:3] c8 | 
[V:4] C,8 | 
[V:1] z4A4 | 
[V:2] c4d4 | 
[V:3] A4F4 | 
[V:4] F,8 | 
[V:1] G2G4FG | 
[V:2] B8 | 
[V:3] G8 | 
[V:4] z4E,4 | 
[V:1] A4z4 | 
[V:2] A4c4 | 
[V:3] z2c4A2 | 
[V:4] F,8 | 
[V:1] F4E4 | 
[V:2] d4G4 | 
[V:3] B4c4 | 
[V:4] D,4C,4 | 
[V:1] F6G2 | 
[V:2] A4_B4 | 
[V:3] d8 | 
[V:4] F,4_B,,4 | 
[V:1] E8 | 
[V:2] G8 | 
[V:3] c8 | 
[V:4] C,8 | 
[V:1] D8 | 
[V:2] z4F4 | 
[V:3] A4B4 | 
[V:4] D,8 | 
[V:1] E4F4- | 
[V:2] G4A3B | 
[V:3] c6A2 | 
[V:4] C,4F,4- | 
[V:1] F4E3F | 
[V:2] c8 | 
[V:3] A4G4 | 
[V:4] F,4C,4 | 
[V:1] G2A4GF | 
[V:2] e4e2d2- | 
[V:3] c6B2 | 
[V:4] z2C,2A,,2B,,2- | 
[V:1] G2E2D4- | 
[V:2] d2cBA4 | 
[V:3] G4F4 | 
[V:4] B,,2C,2D,4 | 
[V:1] D2G4^F2 | 
[V:2] B2G2c4 | 
[V:3] G4A4 | 
[V:4] B,,2C,4A,,2 | 
[V:1] G4z4 | 
[V:2] d2c2A3B | 
[V:3] D2G4F2 | 
[V:4] B,,2C,2D,4 | 
[V:1] G4A4 | 
[V:2] c2d3BA2 | 
[V:3] G2B2A4 | 
[V:4] C,2G,4F,2 | 
[V:1] B3GA2G2 | 
[V:2] z2d2e3c | 
[V:3] G4c4 | 
[V:4] G,4C,4 | 
[V:1] z2A4F2 | 
[V:2] d2c2z2f2 | 
[V:3] z4c4- | 
[V:4] F,4A,4 | 
[V:1] G8 | 
[V:2] e2e4de | 
[V:3] c4B4 | 
[V:4] G,8 | 
[V:1] A2c2B2A2- | 
[V:2] f4f4 | 
[V:3] c4d4 | 
[V:4] F,4z2D,2 | 
[V:1] AGA4GF | 
[V:2] e2c2d4 | 
[V:3] c4A2B2 | 
[V:4] E,2F,4D,2 | 
[V:1] E4D2E2- | 
[V:2] z2G4c2- | 
[V:3] c4B2G2 | 
[V:4] C,4z2C,2- | 
[V:1] E2C2D2E2- | 
[V:2] c4B2G2 | 
[V:3] A4G4 | 
[V:4] C,2A,,2B,,2C,2- | 
[V:1] E2C2B,2C2- | 
[V:2] A4D2E2 | 
[V:3] E2F2G4 | 
[V:4] C,2A,,2G,,2C,2- | 
[V:1] C2B,2C2D2 | 
[V:2] G4E2D2 | 
[V:3] E2D2z2G2- | 
[V:4] C,2G,,2C,2B,,2 | 
[V:1] E2F2E2C2 | 
[V:2] z2d2c3d | 
[V:3] G2F2G2A2 | 
[V:4] C,2D,2E,2F,2 | 
[V:1] z2G2A2B2 | 
[V:2] e4f2g2- | 
[V:3] B2c3BG2 | 
[V:4] E,2C,2F,2E,2 | 
[V:1] c2A2B2G2 | 
[V:2] gef2g4- | 
[V:3] z2c2B2e2- | 
[V:4] A,4G,4 | 
[V:1] c3BA2B2- | 
[V:2] g2a4f2- | 
[V:3] e2d2c2d2- | 
[V:4] C,2F,3E,D,2 | 
[V:1] B2G4^F2 | 
[V:2] fec2d4 | 
[V:3] d2G2A4 | 
[V:4] E,4D,4 | 
[V:1] G8- | 
[V:2] B2e4d2 | 
[V:3] G8- | 
[V:4] G,,8- | 
[V:1] G8 |]  
[V:2] d8 |]  
[V:3] G8 |]  
[V:4] G,,8 |]  



